svg/300/outlined/grid_3x3-fill.svg

<svg xmlns="http://www.w3.org/2000/svg" width="48" height="48" viewBox="0 -960 960 960"><path d="M349.54-180.001V-349.54H180.001v-45.383H349.54v-170.154H180.001v-45.383H349.54v-169.539h45.383v169.539h170.154v-169.539h45.383v169.539h169.539v45.383H610.46v170.154h169.539v45.383H610.46v169.539h-45.383V-349.54H394.923v169.539H349.54Zm45.383-214.922h170.154v-170.154H394.923v170.154Z"/></svg>

<svg xmlns="http://www.w3.org/2000/svg" width="48" height="48" viewBox="0 -960 960 960"><path d="M349.54-180v-169.54H180v-45.38h169.54v-170.16H180v-45.38h169.54V-780h45.38v169.54h170.16V-780h45.38v169.54H780v45.38H610.46v170.16H780v45.38H610.46V-180h-45.38v-169.54H394.92V-180h-45.38Zm45.38-214.92h170.16v-170.16H394.92v170.16Z"/></svg>
